packages/ui/public/icons/post-unlocked-icon.svg

<svg width="25" height="24" viewBox="0 0 25 24" fill="none" xmlns="http://www.w3.org/2000/svg">
<path d="M7.5 10V8C7.5 5.23858 9.73858 3 12.5 3C13.4107 3 14.2646 3.24349 15 3.66891" stroke="#FF51A8" stroke-width="2" stroke-linecap="round" stroke-linejoin="round"/>
<path d="M12.5 14.5V16.5M9.3 21H15.7C17.3802 21 18.2202 21 18.862 20.673C19.4265 20.3854 19.8854 19.9265 20.173 19.362C20.5 18.7202 20.5 17.8802 20.5 16.2V14.8C20.5 13.1198 20.5 12.2798 20.173 11.638C19.8854 11.0735 19.4265 10.6146 18.862 10.327C18.2202 10 17.3802 10 15.7 10H9.3C7.61984 10 6.77976 10 6.13803 10.327C5.57354 10.6146 5.1146 11.0735 4.82698 11.638C4.5 12.2798 4.5 13.1198 4.5 14.8V16.2C4.5 17.8802 4.5 18.7202 4.82698 19.362C5.1146 19.9265 5.57354 20.3854 6.13803 20.673C6.77976 21 7.61984 21 9.3 21Z" stroke="#FF51A8" stroke-width="2" stroke-linecap="round" stroke-linejoin="round"/>
</svg>

<svg xmlns="http://www.w3.org/2000/svg" width="25" height="24" fill="none"><path stroke="#FF51A8" stroke-linecap="round" stroke-linejoin="round" stroke-width="2" d="M7.5 10V8A5 5 0 0 1 15 3.669M12.5 14.5v2M9.3 21h6.4c1.68 0 2.52 0 3.162-.327a3 3 0 0 0 1.311-1.311c.327-.642.327-1.482.327-3.162v-1.4c0-1.68 0-2.52-.327-3.162a3 3 0 0 0-1.311-1.311C18.22 10 17.38 10 15.7 10H9.3c-1.68 0-2.52 0-3.162.327a3 3 0 0 0-1.311 1.311C4.5 12.28 4.5 13.12 4.5 14.8v1.4c0 1.68 0 2.52.327 3.162a3 3 0 0 0 1.311 1.311C6.78 21 7.62 21 9.3 21Z"/></svg>
